lib/assets/icons/svg/outlined-product-beard.svg

<svg xmlns="http://www.w3.org/2000/svg" viewBox="0 0 24 24"><path d="M17.585 16.614a6.589 6.589 0 0 1-2-.31 6.504 6.504 0 0 1-3.57-3 6.504 6.504 0 0 1-3.57 3 8.128 8.128 0 0 1-5.8-.61.5.5 0 0 1-.01-.87 7.216 7.216 0 0 0 3.34-4.58c.08-.36.15-.58.15-.58a3.002 3.002 0 0 1 1.94-2.17c1.51-.44 3.24.61 3.94 1.11.7-.5 2.43-1.56 3.94-1.11a3 3 0 0 1 1.93 2.17s.07.22.15.59a7.19 7.19 0 0 0 3.34 4.57.5.5 0 0 1 .25.44.517.517 0 0 1-.27.43 8.665 8.665 0 0 1-3.76.92zm-5.58-4.91c.191 0 .366.109.45.28a5.997 5.997 0 0 0 3.42 3.37 6.626 6.626 0 0 0 4.2-.2 8.242 8.242 0 0 1-3-4.69c-.06-.3-.12-.48-.12-.49a2.073 2.073 0 0 0-1.28-1.52c-1.16-.34-2.81.72-3.34 1.17a.509.509 0 0 1-.64 0c-.54-.44-2.18-1.51-3.34-1.17a2.073 2.073 0 0 0-1.28 1.52s-.06.19-.13.49a8.14 8.14 0 0 1-3 4.69 6.664 6.664 0 0 0 4.21.2 6 6 0 0 0 3.43-3.37.492.492 0 0 1 .42-.28z"/></svg>

<svg viewBox="0 0 24 24" xmlns="http://www.w3.org/2000/svg">
  <path  d="M 17.585 16.614 C 16.906 16.614 16.232 16.51 15.585 16.304 C 14.065 15.78 12.794 14.711 12.015 13.304 C 11.236 14.711 9.965 15.78 8.445 16.304 C 6.503 16.825 4.436 16.608 2.645 15.694 C 2.486 15.61 2.386 15.445 2.385 15.264 C 2.382 15.083 2.478 14.915 2.635 14.824 C 4.326 13.817 5.533 12.163 5.975 10.244 C 6.055 9.884 6.125 9.664 6.125 9.664 C 6.354 8.655 7.087 7.835 8.065 7.494 C 9.575 7.054 11.305 8.104 12.005 8.604 C 12.705 8.104 14.435 7.044 15.945 7.494 C 16.919 7.837 17.648 8.657 17.875 9.664 C 17.875 9.664 17.945 9.884 18.025 10.254 C 18.467 12.17 19.674 13.822 21.365 14.824 C 21.522 14.915 21.618 15.083 21.615 15.264 C 21.606 15.445 21.504 15.608 21.345 15.694 C 20.177 16.28 18.892 16.595 17.585 16.614 Z M 12.005 11.704 C 12.196 11.704 12.371 11.813 12.455 11.984 C 13.076 13.535 14.316 14.756 15.875 15.354 C 17.26 15.745 18.734 15.675 20.075 15.154 C 18.561 13.986 17.501 12.328 17.075 10.464 C 17.015 10.164 16.955 9.984 16.955 9.974 C 16.815 9.283 16.333 8.71 15.675 8.454 C 14.515 8.114 12.865 9.174 12.335 9.624 C 12.148 9.775 11.882 9.775 11.695 9.624 C 11.155 9.184 9.515 8.114 8.355 8.454 C 7.697 8.71 7.215 9.283 7.075 9.974 C 7.075 9.974 7.015 10.164 6.945 10.464 C 6.527 12.332 5.465 13.992 3.945 15.154 C 5.29 15.674 6.767 15.745 8.155 15.354 C 9.718 14.758 10.961 13.537 11.585 11.984 C 11.662 11.821 11.824 11.713 12.005 11.704 Z"/>
</svg>
